src/img/bem.svg

<svg width="38" height="38" viewBox="0 0 38 38" fill="none" xmlns="http://www.w3.org/2000/svg">
<path d="M2.375 9.03825H10.1485V11.3473H2.375V9.03825ZM2.375 4.75H10.1485V7.05901H2.375V4.75ZM16.3218 13.2934H2.375V15.6024H15.7992C17.2689 15.6024 20.6983 15.6354 21.9722 17.7135V16.4271C21.3517 14.3819 19.5226 13.2934 16.3217 13.2934H16.3218ZM16.3543 17.5816H2.375V19.8906H15.7992C19.0653 19.8906 21.1231 20.0225 21.9722 20.4844V19.4618C21.3189 17.8455 18.5754 17.5816 16.3544 17.5816H16.3543ZM16.3218 28.4669H2.375V26.1579H15.7992C17.2689 26.1579 20.6983 26.125 21.9722 24.0469V25.3333C21.3517 27.3785 19.5226 28.4669 16.3217 28.4669H16.3218ZM16.3543 24.1788H2.375V21.8698H15.7992C19.0653 21.8698 21.1231 21.7379 21.9722 21.276V22.2986C21.3189 23.9149 18.5754 24.1788 16.3544 24.1788H16.3543ZM25.3691 32.4583H35.625V31.0399H25.663C24.7811 31.0399 22.6909 31.0069 21.9396 29.7864V30.5781C22.2989 31.7986 23.4094 32.4583 25.3691 32.4583ZM25.3365 29.8524H35.5924V28.434H25.663C23.6706 28.434 22.4294 28.368 21.9395 28.0712V28.6979C22.3314 29.6875 23.9971 29.8524 25.3363 29.8524H25.3365Z" fill="#272727"/>
</svg>

<svg width="38" height="38" viewBox="0 0 38 38" fill="none" xmlns="http://www.w3.org/2000/svg"><path d="M2.375 9.038h7.774v2.31H2.375v-2.31zm0-4.288h7.774v2.309H2.375V4.75zm13.947 8.543H2.375v2.31h13.424c1.47 0 4.9.032 6.173 2.11v-1.286c-.62-2.045-2.45-3.134-5.65-3.134zm.032 4.289H2.375v2.309h13.424c3.266 0 5.324.132 6.173.593v-1.022c-.653-1.616-3.397-1.88-5.618-1.88zm-.032 10.885H2.375v-2.31h13.424c1.47 0 4.9-.032 6.173-2.11v1.286c-.62 2.046-2.45 3.134-5.65 3.134zm.032-4.288H2.375v-2.31h13.424c3.266 0 5.324-.131 6.173-.593v1.023c-.653 1.616-3.397 1.88-5.618 1.88zm9.015 8.28h10.256v-1.42h-9.962c-.882 0-2.972-.032-3.723-1.253v.792c.359 1.22 1.47 1.88 3.43 1.88zm-.032-2.607h10.255v-1.418h-9.929c-1.992 0-3.234-.066-3.724-.363v.627c.392.99 2.058 1.154 3.397 1.154z" fill="#272727"/></svg>
